src/icons/0022_calculator_a.svg

<svg data-name="Layer 1" xmlns="http://www.w3.org/2000/svg" viewBox="0 0 48 48"><path d="M38 0H10a2 2 0 00-2 2v44a2 2 0 002 2h28a2 2 0 002-2V2a2 2 0 00-2-2zM15 41h-4v-4h4zm0-7h-4v-4h4zm0-7h-4v-4h4zm7 14h-4v-4h4zm0-7h-4v-4h4zm0-7h-4v-4h4zm7 14h-4v-4h4zm0-7h-4v-4h4zm0-7h-4v-4h4zm8 14h-5V23h5zm0-25H11V3h26z"/></svg>

<svg id="Layer_1" data-name="Layer 1" xmlns="http://www.w3.org/2000/svg" viewBox="0 0 48 48"><title>0022_calculator_a</title><path d="M38,0H10A2,2,0,0,0,8,2V46a2,2,0,0,0,2,2H38a2,2,0,0,0,2-2V2A2,2,0,0,0,38,0ZM15,41H11V37h4Zm0-7H11V30h4Zm0-7H11V23h4Zm7,14H18V37h4Zm0-7H18V30h4Zm0-7H18V23h4Zm7,14H25V37h4Zm0-7H25V30h4Zm0-7H25V23h4Zm8,14H32V23h5Zm0-25H11V3H37Z"/></svg>
